docs/img/Vector.svg

<svg width="28" height="28" viewBox="0 0 28 28" fill="none" xmlns="http://www.w3.org/2000/svg">
<path d="M26.7149 1.28799C26.5231 1.09632 26.2801 0.964148 26.015 0.907389C25.7499 0.85063 25.4741 0.871702 25.2207 0.968068L1.78146 9.83975H1.77677C1.50651 9.94369 1.27493 10.1285 1.11366 10.369C0.952379 10.6095 0.86927 10.8939 0.87568 11.1834C0.882091 11.4729 0.977707 11.7533 1.14947 11.9864C1.32124 12.2196 1.56077 12.394 1.83537 12.4858L1.85939 12.4935L9.90431 15.9288C10.0612 15.9764 10.2279 15.9821 10.3877 15.9452C10.5474 15.9083 10.6947 15.8301 10.8149 15.7185L23.7266 3.6874C23.765 3.64893 23.8107 3.61841 23.861 3.59759C23.9113 3.57677 23.9651 3.56605 24.0195 3.56605C24.074 3.56605 24.1278 3.57677 24.1781 3.59759C24.2284 3.61841 24.274 3.64893 24.3125 3.6874C24.351 3.72588 24.3815 3.77155 24.4023 3.82182C24.4231 3.87209 24.4339 3.92596 24.4339 3.98037C24.4339 4.03478 24.4231 4.08866 24.4023 4.13893C24.3815 4.18919 24.351 4.23487 24.3125 4.27334L12.2809 17.1792C12.1692 17.2993 12.0911 17.4466 12.0542 17.6064C12.0172 17.7662 12.0229 17.9328 12.0705 18.0897L15.507 26.1394C15.5106 26.1511 15.5141 26.1616 15.5182 26.1728C15.7057 26.7159 16.1803 27.0991 16.7539 27.1249H16.8125C17.1021 27.1266 17.3855 27.041 17.6258 26.8795C17.8662 26.7179 18.0524 26.4878 18.1602 26.219L27.0307 2.78623C27.1284 2.53269 27.1506 2.25625 27.0946 1.99036C27.0385 1.72447 26.9066 1.48051 26.7149 1.28799Z" fill="white"/>
</svg>

<svg width="28" height="28" fill="none" xmlns="http://www.w3.org/2000/svg"><path d="M26.715 1.288a1.407 1.407 0 0 0-1.494-.32L1.78 9.84h-.004a1.406 1.406 0 0 0 .058 2.646l.024.007 8.045 3.436a.938.938 0 0 0 .91-.21L23.728 3.687a.413.413 0 0 1 .707.293.415.415 0 0 1-.122.293L12.281 17.18a.937.937 0 0 0-.21.91l3.436 8.05a.654.654 0 0 0 .011.034c.188.543.662.926 1.236.952h.058a1.443 1.443 0 0 0 1.348-.906l8.87-23.433a1.407 1.407 0 0 0-.315-1.498Z" fill="#fff"/></svg>
